!!!!SEGMENT: pl-kk--kk-i-6--064-003_lilius-franciszek--missa-pro-defunctis-requiem-aeternam.krn
!!!cenid: 16xx:1062
!!!COM: Lilius, Franciszek
!!!COM-rismID:
!!!CDT: ~1600-1657
!!!CNT: Polish
!!!OPR: Missa pro defunctis
!!!OTL: Requiem aeternam
!!!OMV: 003
!!!PDT:
!!!AGN:
!!!SMS-siglum: PL-Kk
!!!SMS-shelfmark: Kk.I.6
!!!SMS-shelfwork: 064-003 M
!!!SMS-variant:
!!!SMS-altvar:
!!!NIFC-rismSourceID: 1001136594
!!!NIFC-islandoraID: pl-kk:1634
!!!URL-pdf-islandora: https://repozytorium.nifc.pl/islandora/object/pl-kk%3A1634/datastream/PDF/view
!!!URL-scan: https://polish.musicsources.pl/pl/lokalizacje/galeria/rekopisy/6133 @EN{Scan on Polish Music Herritage in Open Access Website} @PL{Skany w portalu Dziedzictwo Muzyki Polskiej w otwartym dostępie}
!!!ONB-nifc: UWAGA: C (skan 0088-0092), T (skan 0200-0206), B (skan 0313-0319) Części Mszy: 1. Requiem aeternam, 2. Kyrie, 3. Requiem aeternam, 4. Absolve Domine, 5. Dies irae, 6. Domine Jesu Christe, 7. Sanctus, 8. Agnus Dei, 9. Lux aeterna
!!!AIN: 1 bass 1 soprn 1 tenor
!!!key: F:lyd
**kern	**text	**kern	**text	**kern	**text
*group1	*	*group1	*	*group1	*
*part3	*part3	*part2	*part2	*part1	*part1
*staff3	*staff3	*staff2	*staff2	*staff1	*staff1
*I"Baſsus.	*	*I"Tenor.	*	*I"Cantus.	*
*I'[B]	*	*I'[T]	*	*I'[S]	*
*Ibass	*	*Itenor	*	*Isoprn	*
*ICvox	*	*ICvox	*	*ICvox	*
*clefF4	*	*clefC4	*	*clefC4	*
*k[b-]	*	*k[b-]	*	*k[b-]	*
*F:lyd	*	*F:lyd	*	*F:lyd	*
*M4/4	*	*M4/4	*	*M4/4	*
*met(C)	*	*met(C)	*	*met(C)	*
=1-	=1-	=1-	=1-	=1-	=1-
!	!	!LO:TX:t=P:problem=układ ksiąg, a co za tym idzie, skanów, jest przypadkowy, a po ukształtowaniu głosów widać, że tenorem nie jest to, co w księdze drugiej, tylko to, co w księdze pierwszej.	!	!	!
*lig	*	*	*	*lig	*
1F	Re-	1A	Re-	1F	Re-
=2-	=2-	=2-	=2-	=2-	=2-
!LO:TX:a:t=P:problem=♭ above	!	!	!	!	!
1.E-X	.	2.G/	.	1B-	.
.	.	4A\	.	.	.
*Xlig	*	*	*	*Xlig	*
=3-	=3-	=3-	=3-	=3-	=3-
.	.	2B-\	.	1G	-qui-
2E-\	-qui-	2B-\	-qui-	.	.
=4-	=4-	=4-	=4-	=4-	=4-
1C	-em	1c	-em	1G	-em
=5-	=5-	=5-	=5-	=5-	=5-
!LO:TX:t=P:problem=# above	!	!	!	!	!
!LO:N:acc=#	!	!	!	!	!
1BBn	ae-	1d	ae-	1G	ae-
=6-	=6-	=6-	=6-	=6-	=6-
1C	-ter-	1c	-ter-	1G	-ter-
=7-	=7-	=7-	=7-	=7-	=7-
*	*	*	*	*lig	*
1GG	-nam	2B-\	.	1B-	.
.	.	1G/	-nam	.	.
=8-	=8-	=8-	=8-	=8-	=8-
1C	Re-	.	.	1G	.
.	.	2.c\	re-	.	.
*	*	*	*	*Xlig	*
=9-	=9-	=9-	=9-	=9-	=9-
*	*	*	*	*lig	*
2.F\	.	.	.	1A	.
.	.	4c\	-qui-	.	.
.	.	2A/	-em	.	.
4F\	-qui-	.	.	.	.
=10-	=10-	=10-	=10-	=10-	=10-
2D\	-em	2F/	ae-	1B-	.
2G\	ae-	2.B-\	-ter-	.	.
*	*	*	*	*Xlig	*
=11-	=11-	=11-	=11-	=11-	=11-
*	*	*	*	*lig	*
1E-X	.	.	.	1G	.
.	.	4A\	.	.	.
.	.	2G\	.	.	.
=12-	=12-	=12-	=12-	=12-	=12-
2.D/	-ter-	1A	.	1F	.
4C/	.	.	.	.	.
*	*	*	*	*Xlig	*
=13-	=13-	=13-	=13-	=13-	=13-
*	*	*	*	*lig	*
2BB-y/	.	2d\	.	1B-	.
2GG/	.	4c\	.	.	.
.	.	4B-\	.	.	.
=14-	=14-	=14-	=14-	=14-	=14-
*lig	*	*	*	*	*
1D	.	2A/	.	1F	.
*	*	*custos:d	*	*	*
!	!	!LO:LB:g=original	!	!	!
.	.	1d\	.	.	.
*	*	*	*	*Xlig	*
=15-	=15-	=15-	=15-	=15-	=15-
*	*	*	*	*lig	*
!LO:TX:a:t=P:problem=♭ above	!	!	!	!	!
1E-X	.	.	.	1G	.
.	.	2c\	.	.	.
*Xlig	*	*	*	*	*
!LO:LB:g=original	!	!	!	!	!
=16-	=16-	=16-	=16-	=16-	=16-
1D	.	1d	.	1A	.
*	*	*	*	*Xlig	*
=17-	=17-	=17-	=17-	=17-	=17-
0GG	-nam	0B-	-nam	1G	-nam
=18-	=18-	=18-	=18-	=18-	=18-
.	.	.	.	1G	do-
=19-	=19-	=19-	=19-	=19-	=19-
2r	.	0r	.	1G	-na
1G\	do-	.	.	.	.
=20-	=20-	=20-	=20-	=20-	=20-
*	*	*	*	*lig	*
.	.	.	.	1B-	e-
2G\	-na	.	.	.	.
=21-	=21-	=21-	=21-	=21-	=21-
2.B-\	e-	2r	.	1G	.
.	.	1d\	do-	.	.
4A\	.	.	.	.	.
*	*	*	*	*Xlig	*
=22-	=22-	=22-	=22-	=22-	=22-
*lig	*	*	*	*lig	*
1G	.	.	.	1B-	.
.	.	2d\	-na	.	.
=23-	=23-	=23-	=23-	=23-	=23-
1F	.	1f	e-	1c	.
*	*	*	*	*custos:d	*
!	!	!	!	!LO:LB:g=original	!
*Xlig	*	*	*	*Xlig	*
=24-	=24-	=24-	=24-	=24-	=24-
*	*	*	*	*lig	*
2BB-/	-is	2.f\	-is	1d	.
1D\	do-	.	.	.	.
.	.	4e\	.	.	.
=25-	=25-	=25-	=25-	=25-	=25-
.	.	1d	.	1B-	.
2D/	-na	.	.	.	.
*	*	*	*	*Xlig	*
=26-	=26-	=26-	=26-	=26-	=26-
*	*	*	*	*lig	*
2F\	e-	1.c	Do-	1A	.
2FF/	-is	.	.	.	.
=27-	=27-	=27-	=27-	=27-	=27-
2.C/	Do-	.	.	1G	.
.	.	2c\	-mi-	.	.
4C/	-mi-	.	.	.	.
*	*	*	*	*Xlig	*
=28-	=28-	=28-	=28-	=28-	=28-
*	*	*	*	*lig	*
2GG/	-ne	1B-	-ne	1G	-is
*	*ij	*	*	*	*
4GG/	do-	.	.	.	.
4GG/	-na	.	.	.	.
=29-	=29-	=29-	=29-	=29-	=29-
2.BB-/	e-	2r	.	1F	.
.	.	1d\	do-	.	.
4AA/	.	.	.	.	.
*	*	*	*	*Xlig	*
=30-	=30-	=30-	=30-	=30-	=30-
*	*	*	*	*lig	*
1.GG	.	.	.	1B-	Do-
.	.	2d\	-na	.	.
=31-	=31-	=31-	=31-	=31-	=31-
.	.	1B-	e-	1G	.
2GG/	-is	.	.	.	.
*	*	*	*	*Xlig	*
=32-	=32-	=32-	=32-	=32-	=32-
0D	Do-	2A/	-is	1F	.
.	.	2.d\	Do-	.	.
=33-	=33-	=33-	=33-	=33-	=33-
*	*	*	*	*lig	*
.	.	.	.	1F	.
.	.	4c\	.	.	.
.	.	1B-\	.	.	.
*custos:C	*	*	*	*	*
!LO:LB:g=original	!	!	!	!	!
=34-	=34-	=34-	=34-	=34-	=34-
!	!	!	!	!LO:TX:a:t=P:problem=♭ above	!
2.C/	.	.	.	1E-X	.
.	.	2A/	-mi-	.	.
4C/	-mi-	.	.	.	.
*	*	*	*	*Xlig	*
=35-	=35-	=35-	=35-	=35-	=35-
*	*	*	*	*lig	*
1BB-	-ne	2B-\	-ne	1F	.
*	*Xij	*	*	*	*
.	.	1d\	.	.	.
*	*	*custos:d	*	*	*
!	!	!LO:LB:g=original	!	!	!
=36-	=36-	=36-	=36-	=36-	=36-
0r	.	.	.	1G	.
*	*	*	*ij	*	*
.	.	2d\	do-	.	.
*	*	*	*	*Xlig	*
=37-	=37-	=37-	=37-	=37-	=37-
*	*	*	*	*lig	*
.	.	2.f\	.	1F	.
.	.	4e\	-na	.	.
=38-	=38-	=38-	=38-	=38-	=38-
1r	.	1d	e-	1G	.
*	*	*	*	*Xlig	*
=39-	=39-	=39-	=39-	=39-	=39-
2.C/	do-	1c	.	1G	-mi-
4C/	-na	.	.	.	.
=40-	=40-	=40-	=40-	=40-	=40-
*	*	*	*	*lig	*
2.E-X\	e-	2B-\	-is	1G	-ne
.	.	1G/	Do-	.	.
4D/	.	.	.	.	.
=41-	=41-	=41-	=41-	=41-	=41-
!	!	!	!	!LO:TX:a:t=P:problem=♭ above	!
1C	.	.	.	1E-X	.
.	.	2A/	-mi-	.	.
*	*	*	*	*Xlig	*
=42-	=42-	=42-	=42-	=42-	=42-
*	*	*	*	*lig	*
1BB-	-is	1B-	-ne	1F	.
=43-	=43-	=43-	=43-	=43-	=43-
4GG/	Do-	2r	.	1G	.
4AA/	.	.	.	.	.
4BB-/	.	2.d\	do-	.	.
4GG/	.	.	.	.	.
*	*	*	*	*Xlig	*
=44-	=44-	=44-	=44-	=44-	=44-
*	*	*	*	*lig	*
2.D/	.	.	.	1A	.
.	.	4d\	-na	.	.
.	.	1f\	e-	.	.
4C/	.	.	.	.	.
=45-	=45-	=45-	=45-	=45-	=45-
*lig	*	*	*	*	*
1BB-	.	.	.	1B-	.
.	.	2d\	-is	.	.
*	*	*	*	*Xlig	*
=46-	=46-	=46-	=46-	=46-	=46-
*col	*	*	*	*lig	*
2.C/	.	2.c\	Do-	1G	.
*Xlig	*	*	*	*	*
4C/	-mi-	4c\	-mi-	.	.
*Xcol	*	*	*	*	*
=47-	=47-	=47-	=47-	=47-	=47-
2FF/	-ne	2A/	-ne	1F	.
*	*	*	*Xij	*	*
2F\	et	2A/	et	.	.
*	*	*	*	*Xlig	*
=48-	=48-	=48-	=48-	=48-	=48-
*	*	*	*	*lig	*
2F\	lux	2B-\	lux	1G	.
2E-X\	per-	2c\	per-	.	.
=49-	=49-	=49-	=49-	=49-	=49-
2.D/	-pe-	2.d\	-pe-	1B-	.
4D/	-tu-	4d\	-tu-	.	.
*	*	*	*	*Xlig	*
*custos:C	*	*	*	*custos:c	*
!LO:LB:g=original	!	!	!	!LO:LB:g=original	!
=50-	=50-	=50-	=50-	=50-	=50-
*	*	*	*	*lig	*
1C	-a	1G	-a	1c	.
=51-	=51-	=51-	=51-	=51-	=51-
2.G\	lu-	1r	.	1B-	.
4G\	-ce-	.	.	.	.
*	*	*	*	*Xlig	*
=52-	=52-	=52-	=52-	=52-	=52-
*	*	*	*	*lig	*
1Eny	-at	2r	.	1G	.
*	*	*	*ij	*	*
.	.	2G/	et	.	.
=53-	=53-	=53-	=53-	=53-	=53-
*lig	*	*	*	*	*
1F	e-	2F/	lux	1A	.
.	.	2F/	per-	.	.
*	*	*	*	*Xlig	*
*	*	*custos:E	*	*	*
!	!	!LO:LB:g=original	!	!	!
=54-	=54-	=54-	=54-	=54-	=54-
1C	.	2.E/	-pe-	1G	.
.	.	4E/	-tu-	.	.
*Xlig	*	*	*	*	*
=55-	=55-	=55-	=55-	=55-	=55-
2GG/	-is	2D/	-a	1B-	et
*	*	*	*Xij	*	*
2GG/	et	2.G/	lu-	.	.
=56-	=56-	=56-	=56-	=56-	=56-
2G\	lux	.	.	1B-	lux
.	.	4G/	-ce-	.	.
2F\	per-	2D/	-at	.	.
=57-	=57-	=57-	=57-	=57-	=57-
2.E-X\	-pe-	1G	e-	1B-	per-
4E-\	-tu-	.	.	.	.
=58-	=58-	=58-	=58-	=58-	=58-
1BB-	-a	2F/	.	1B-	-pe-
.	.	4D/	.	.	.
.	.	4E/	.	.	.
=59-	=59-	=59-	=59-	=59-	=59-
*	*	*	*	*lig	*
2r	.	4F/	.	1A	.
.	.	4G/	.	.	.
2F\	et	1A\	.	.	.
=60-	=60-	=60-	=60-	=60-	=60-
2F\	lux	.	.	1c	.
2Eny\	per-	2G/	.	.	.
*	*	*	*	*Xlig	*
=61-	=61-	=61-	=61-	=61-	=61-
*	*	*lig	*	*lig	*
4D/	-pe-	1F	.	1d	.
4C/	.	.	.	.	.
4BB-/	.	.	.	.	.
4AA/	.	.	.	.	.
=62-	=62-	=62-	=62-	=62-	=62-
2.GG/	.	1G	.	1B-	.
4GG/	-tu-	.	.	.	.
*	*	*Xlig	*	*Xlig	*
=63-	=63-	=63-	=63-	=63-	=63-
1FF	-a	2c\	-is	1A	.
.	.	2f\	et	.	.
=64-	=64-	=64-	=64-	=64-	=64-
*	*	*	*	*lig	*
2.C/	lu-	2f\	lux	1c	.
.	.	2e\	per-	.	.
4C/	-ce-	.	.	.	.
=65-	=65-	=65-	=65-	=65-	=65-
1GG	-at	2.d\	-pe-	1B-	.
.	.	4d\	-tu-	.	.
*	*	*	*	*Xlig	*
*custos:C	*	*	*	*	*
!LO:PB:g=original	!	!	!	!	!
=66-	=66-	=66-	=66-	=66-	=66-
*	*	*	*	*lig	*
4C/	e-	1c	-a	1c	.
4D/	.	.	.	.	.
4E\	.	.	.	.	.
4F\	.	.	.	.	.
=67-	=67-	=67-	=67-	=67-	=67-
2G\	.	2r	.	1B-	.
2D\	.	2.d\	lu-	.	.
*	*	*	*	*Xlig	*
=68-	=68-	=68-	=68-	=68-	=68-
2.E\	.	.	.	1G	.
.	.	4d\	-ce-	.	.
.	.	1c\	-at	.	.
4F\	.	.	.	.	.
=69-	=69-	=69-	=69-	=69-	=69-
1G	.	.	.	1G	-tu-
!	!	!LO:TX:t=P:problem=# above	!	!	!
!	!	!LO:N:acc=#	!	!	!
.	.	2Bn\	e-	.	.
*	*	*custos:c	*	*	*
!	!	!LO:LB:g=original	!	!	!
=70-	=70-	=70-	=70-	=70-	=70-
1C	-is	0c	-is	1G	-a
=71-	=71-	=71-	=71-	=71-	=71-
*	*	*	*	*lig	*
1F	et	.	.	1A	.
=72-	=72-	=72-	=72-	=72-	=72-
2F\	lux	1r	.	1G	.
2E\	per-	.	.	.	.
*	*	*	*	*Xlig	*
=73-	=73-	=73-	=73-	=73-	=73-
*	*	*	*	*lig	*
2.D\	-pe-	1f	et	1F	.
4D\	-tu-	.	.	.	.
=74-	=74-	=74-	=74-	=74-	=74-
1C	-a	2f\	lux	1G	.
.	.	2e\	per-	.	.
*	*	*	*	*custos:B-	*
!	!	!	!	!LO:LB:g=original	!
*	*	*	*	*Xlig	*
=75-	=75-	=75-	=75-	=75-	=75-
*	*	*	*	*lig	*
2.G\	lu-	2.d\	-pe-	1B-	.
4F\	-ce-	4d\	-tu-	.	.
=76-	=76-	=76-	=76-	=76-	=76-
4E-X\	-at	1c	-a	1G	.
4D\	.	.	.	.	.
2C/	.	.	.	.	.
*	*	*	*	*Xlig	*
=77-	=77-	=77-	=77-	=77-	=77-
*	*	*	*	*lig	*
4BB-/	e-	4d\	lu-	1B-	.
4C/	.	4c\	-ce-	.	.
!	!	!LO:N:vis=1.	!	!	!
4D/	.	1B-y\	-at	.	.
4BB-/	.	.	.	.	.
=78-	=78-	=78-	=78-	=78-	=78-
1F	.	.	.	1c	.
.	.	2A/	e-	.	.
*	*	*	*	*Xlig	*
=79-	=79-	=79-	=79-	=79-	=79-
*	*	*	*	*lig	*
2BB-/	-is	1B-	-is	1B-	.
*custos:D	*	*	*	*	*
!LO:LB:g=original	!	!	!	!	!
2.D/	lu-	.	.	.	.
=80-	=80-	=80-	=80-	=80-	=80-
.	.	1r	.	1A	.
4Eny\	-ce-	.	.	.	.
2F\	-at	.	.	.	.
*	*	*	*	*Xlig	*
=81-	=81-	=81-	=81-	=81-	=81-
*	*	*	*	*lig	*
1E-X	e-	2r	.	1G	.
.	.	2.B-\	lu-	.	.
=82-	=82-	=82-	=82-	=82-	=82-
2BB-/	-is	.	.	1B-	.
.	.	4c\	-ce-	.	.
2.BB-/	lu-	2d\	-at	.	.
*	*	*	*	*Xlig	*
=83-	=83-	=83-	=83-	=83-	=83-
*	*	*	*	*lig	*
.	.	4B-\	e-	1F	.
4C/	-ce-	4A\	.	.	.
2D/	-at	4A\	.	.	.
.	.	8G/L	.	.	.
.	.	8F/J	.	.	.
=84-	=84-	=84-	=84-	=84-	=84-
!	!	!	!	!LO:TX:a:t=P:problem=♭ above	!
0C	e-	2.c\	.	1E-X	.
.	.	8B-\L	.	.	.
.	.	8A\J	.	.	.
*	*	*	*	*Xlig	*
=85-	=85-	=85-	=85-	=85-	=85-
!	!	!	!	!LO:TX:a:t=P:problem=♭ above	!
*	*	*	*	*lig	*
.	.	2G/	.	1E-X	lu-
.	.	2A/	.	.	.
=86-	=86-	=86-	=86-	=86-	=86-
2.BB-/	-is	2B-\	.	1F	.
*	*	*custos:d	*	*	*
!	!	!LO:PB:g=original	!	!	!
.	.	2.d\	.	.	.
4AA/	.	.	.	.	.
*	*	*	*	*Xlig	*
=87-	=87-	=87-	=87-	=87-	=87-
2GG/	.	.	.	1G	.
.	.	4c\	.	.	.
*	*ij	*	*	*	*
2.G\	lu-	2B-\	.	.	.
=88-	=88-	=88-	=88-	=88-	=88-
*	*	*	*	*lig	*
.	.	1G	-is	1B-	.
4F\	-ce-	.	.	.	.
2E-X\	-at	.	.	.	.
=89-	=89-	=89-	=89-	=89-	=89-
2C/	e-	2r	.	1A	.
2D/	.	2.d\	lu-	.	.
*	*	*	*	*Xlig	*
=90-	=90-	=90-	=90-	=90-	=90-
2GG/	-is	.	.	1G	.
.	.	4c\	-ce-	.	.
2.GG/	lu-	2B-\	-at	.	.
=91-	=91-	=91-	=91-	=91-	=91-
.	.	2.d\	e-	1B-	.
4AA/	.	.	.	.	.
4BB-/	.	.	.	.	.
4C/	.	4e\	.	.	.
=92-	=92-	=92-	=92-	=92-	=92-
4D\	.	1.f	.	1F	-ce-
4Eny\	.	.	.	.	.
2F\	.	.	.	.	.
=93-	=93-	=93-	=93-	=93-	=93-
2.C/	.	.	.	1G	-at
.	.	2e\	.	.	.
4C/	-ce-	.	.	.	.
=94-	=94-	=94-	=94-	=94-	=94-
*	*	*	*	*lig	*
2GG/	-at	2.d\	.	1B-	e-
2.G\	e-	.	.	.	.
.	.	4c\	.	.	.
=95-	=95-	=95-	=95-	=95-	=95-
.	.	4B-\	.	1G	.
4F\	.	4A\	.	.	.
*custos:E	*	*	*	*	*
!LO:LB:g=original	!	!	!	!	!
2E-X\	.	2G/	.	.	.
*	*	*	*	*Xlig	*
=96-	=96-	=96-	=96-	=96-	=96-
*	*	*	*	*lig	*
2D/	.	2F/	.	1B-	.
2BB-/	.	1B-\	.	.	.
=97-	=97-	=97-	=97-	=97-	=97-
0FF	.	.	.	1c	.
.	.	4A/	.	.	.
.	.	4G/	.	.	.
*	*	*	*	*custos:c	*
!	!	!	!	!LO:LB:g=original	!
*	*	*	*	*Xlig	*
=98-	=98-	=98-	=98-	=98-	=98-
*	*	*	*	*lig	*
.	.	1A	.	1c	.
=99-	=99-	=99-	=99-	=99-	=99-
2BB-/	-is	2B-\	-is	1B-	.
*	*	*	*ij	*	*
2.BB-/	lu-	2.f\	lu-	.	.
*	*	*	*	*Xlig	*
=100-	=100-	=100-	=100-	=100-	=100-
*	*	*	*	*lig	*
.	.	.	.	1c	.
4BB-/	-ce-	4f\	-ce-	.	.
*	*	*custos:c	*	*	*
!	!	!LO:LB:g=original	!	!	!
2AA/	-at	2c\	-at	.	.
=101-	=101-	=101-	=101-	=101-	=101-
*lig	*	*	*	*	*
1BB-	e-	1.B-	e-	1d	.
*	*	*	*	*Xlig	*
=102-	=102-	=102-	=102-	=102-	=102-
1F	.	.	.	1c	-is
.	.	2A/	.	.	.
*Xlig	*	*	*	*	*
=103-	=103-	=103-	=103-	=103-	=103-
0BB-;>	-is	0B-;<	-is	0B-;<	.
*	*Xij	*	*Xij	*	*
=104-||	=104-||	=104-||	=104-||	=104-||	=104-||
*M4/4	*	*M4/4	*	*M4/4	*
*clefF4	*	*clefC4	*	*clefC4	*
*met(C)	*	*met(C)	*	*met(C)	*
*k[b-]	*	*k[b-]	*	*k[b-]	*
!	!	!	!	!LO:TX:t=P:problem=w Cantus nie ma powtórzonego metrum	!
2r	.	0r	.	1G	In
1G\	In	.	.	.	.
=105-	=105-	=105-	=105-	=105-	=105-
.	.	.	.	1B-	me-
2G\	me-	.	.	.	.
=106-	=106-	=106-	=106-	=106-	=106-
*	*	*	*	*lig	*
2.E-X\	-mo-	2r	.	1B-	-mo-
.	.	1G/	In	.	.
4E-\	-ri-	.	.	.	.
=107-	=107-	=107-	=107-	=107-	=107-
1.C	-a	.	.	1c	.
.	.	2G/	me-	.	.
*	*	*	*	*Xlig	*
=108-	=108-	=108-	=108-	=108-	=108-
.	.	2.E/	-mo-	1c	-ri-
2C/	ae-	.	.	.	.
.	.	4E/	-ri-	.	.
=109-	=109-	=109-	=109-	=109-	=109-
0F	-ter-	2A/	-a	1c	-a
.	.	2F/	ae-	.	.
=110-	=110-	=110-	=110-	=110-	=110-
*	*	*	*	*lig	*
.	.	4A/	-ter-	1c	ae-
.	.	2B-\	.	.	.
.	.	4A/	.	.	.
*custos:BB-	*	*	*	*	*
!LO:LB:g=original	!	!	!	!	!
=111-	=111-	=111-	=111-	=111-	=111-
1BB-	-na	1B-	-na	1d	.
*	*	*	*	*Xlig	*
=112-	=112-	=112-	=112-	=112-	=112-
*	*	*	*	*lig	*
1D	in	00r	.	1d	-ter-
=113-	=113-	=113-	=113-	=113-	=113-
1F	me-	.	.	1c	.
*	*	*	*	*Xlig	*
=114-	=114-	=114-	=114-	=114-	=114-
*	*	*	*	*lig	*
2.G\	-mo-	.	.	1B-	.
4G\	-ri-	.	.	.	.
=115-	=115-	=115-	=115-	=115-	=115-
2D\	-a	.	.	1A	.
2F\	ae-	.	.	.	.
*	*	*	*	*Xlig	*
=116-	=116-	=116-	=116-	=116-	=116-
*	*	*	*	*lig	*
4E-X\	-ter-	1G	in	1B-	.
4F\	.	.	.	.	.
2.G\	.	.	.	.	.
=117-	=117-	=117-	=117-	=117-	=117-
.	.	1B-	me-	1G	.
4A\	.	.	.	.	.
1B-\	.	.	.	.	.
*	*	*	*	*Xlig	*
=118-	=118-	=118-	=118-	=118-	=118-
.	.	2.c\	-mo-	1F	.
2A\	-na	.	.	.	.
.	.	4c\	-ri-	.	.
*	*	*	*	*custos:B-	*
!	!	!	!	!LO:LB:g=original	!
=119-	=119-	=119-	=119-	=119-	=119-
*	*	*	*	*lig	*
2B-\	.	1.d	-a	1B-	.
1B-\	e-	.	.	.	.
=120-	=120-	=120-	=120-	=120-	=120-
.	.	.	.	1F	.
2A\	-rit	2c\	ae-	.	.
*	*	*	*	*Xlig	*
*	*	*custos:B-	*	*	*
!	!	!LO:LB:g=original	!	!	!
=121-	=121-	=121-	=121-	=121-	=121-
2.G\	iu-	2.B-\	-ter-	1G	.
4F\	.	4A\	.	.	.
=122-	=122-	=122-	=122-	=122-	=122-
*	*	*	*	*lig	*
2E-X\	.	4G/	.	1B-	.
.	.	4A/	.	.	.
2D/	.	1B-\	.	.	.
=123-	=123-	=123-	=123-	=123-	=123-
1C	.	.	.	1c	.
.	.	2A/	.	.	.
*	*	*	*	*Xlig	*
=124-	=124-	=124-	=124-	=124-	=124-
*lig	*	*	*	*lig	*
1BB-	-ſtus	1B-	.	1d	.
=125-	=125-	=125-	=125-	=125-	=125-
1FF	.	2.A/	.	1c	.
.	.	4G/	-na	.	.
*Xlig	*	*	*	*Xlig	*
=126-	=126-	=126-	=126-	=126-	=126-
*	*	*	*	*lig	*
2BB-/	in	1F	.	1d	.
2D/	me-	.	.	.	.
=127-	=127-	=127-	=127-	=127-	=127-
2.E-X\	-mo-	2r	.	1B-	.
*	*	*	*ij	*	*
.	.	2G/	in	.	.
4E-\	-ri-	.	.	.	.
*	*	*	*	*Xlig	*
*custos:BB-	*	*	*	*	*
!LO:LB:g=original	!	!	!	!	!
=128-	=128-	=128-	=128-	=128-	=128-
0BB-	-a	2B-\	me-	1d	.
.	.	2.d\	-mo-	.	.
=129-	=129-	=129-	=129-	=129-	=129-
*	*	*	*	*lig	*
.	.	.	.	1f	.
.	.	4c\	-ri-	.	.
.	.	2B-\	-a	.	.
=130-	=130-	=130-	=130-	=130-	=130-
0F	ae-	4A/	ae-	1c	.
.	.	4G/	.	.	.
.	.	4A/	.	.	.
.	.	4B-\	.	.	.
*	*	*	*	*Xlig	*
=131-	=131-	=131-	=131-	=131-	=131-
.	.	2c\	.	1A	.
.	.	4f\	.	.	.
.	.	4e\	.	.	.
=132-	=132-	=132-	=132-	=132-	=132-
*lig	*	*	*	*lig	*
1BB-	-ter-	4d\	.	1B-	.
.	.	4c\	.	.	.
.	.	2d\	.	.	.
=133-	=133-	=133-	=133-	=133-	=133-
1C	.	1c	-ter-	1G	.
*Xlig	*	*	*	*Xlig	*
=134-	=134-	=134-	=134-	=134-	=134-
2FF/	-na	1A	-na	1F	.
*	*	*	*Xij	*	*
1F\	e-	.	.	.	.
!	!	!LO:LB:g=original	!	!	!
=135-	=135-	=135-	=135-	=135-	=135-
.	.	0r	.	1G	.
2Eny\	-rit	.	.	.	.
=136-	=136-	=136-	=136-	=136-	=136-
*	*	*	*	*lig	*
2D/	.	.	.	1B-	.
2BB-/	iu-	.	.	.	.
=137-	=137-	=137-	=137-	=137-	=137-
*lig	*	*	*	*	*
1C	.	2r	.	1G	.
.	.	1c\	e-	.	.
*	*	*	*	*Xlig	*
=138-	=138-	=138-	=138-	=138-	=138-
1D	.	.	.	1F	.
!	!	!LO:TX:t=P:problem=# above	!	!	!
!	!	!LO:N:acc=#	!	!	!
.	.	2Bn\	-rit	.	.
*Xlig	*	*	*	*	*
=139-	=139-	=139-	=139-	=139-	=139-
1C	-ſtus	2.c\	iu-	1G	.
.	.	4B-y\	.	.	.
=140-	=140-	=140-	=140-	=140-	=140-
*	*	*	*	*lig	*
1r	.	1A	.	1c	.
=141-	=141-	=141-	=141-	=141-	=141-
2GG/	in	2B-\	.	1d	.
2BB-/	me-	2.d\	.	.	.
*	*	*	*	*Xlig	*
=142-	=142-	=142-	=142-	=142-	=142-
*	*	*	*	*lig	*
2.C/	-mo-	.	.	1e-X	.
.	.	4c\	.	.	.
.	.	1c\	.	.	.
4C/	-ri-	.	.	.	.
=143-	=143-	=143-	=143-	=143-	=143-
2GG/	-a	.	.	1d	.
!	!	!LO:TX:t=P:problem=# above	!	!	!
!	!	!LO:N:acc=#	!	!	!
2G\	ae-	2Bn\	.	.	.
*	*	*	*	*Xlig	*
*	*	*	*	*custos:c	*
!	!	!	!	!LO:LB:g=original	!
=144-	=144-	=144-	=144-	=144-	=144-
2E-X\	-ter-	1c	-ſtus	1c	.
1C/	.	.	.	.	.
=145-	=145-	=145-	=145-	=145-	=145-
.	.	1.G	in	1d	-na
!LO:N:acc=#	!	!	!	!	!
2BBn/	.	.	.	.	.
=146-	=146-	=146-	=146-	=146-	=146-
*	*	*	*	*lig	*
1C	-na	.	.	1e-X	.
.	.	2c\	me-	.	.
=147-	=147-	=147-	=147-	=147-	=147-
1F	e-	2.A\	-mo-	1c	.
.	.	4B-y\	.	.	.
*	*	*	*	*Xlig	*
=148-	=148-	=148-	=148-	=148-	=148-
*lig	*	*	*	*lig	*
1E-X	.	2c\	.	1e-X	e-
.	.	1B-\	.	.	.
=149-	=149-	=149-	=149-	=149-	=149-
1F	.	.	.	1c	.
.	.	2A/	-ri-	.	.
*Xlig	*	*	*	*Xlig	*
*custos:BB-	*	*	*	*	*
!LO:LB:g=original	!	!	!	!	!
=150-	=150-	=150-	=150-	=150-	=150-
1BB-y	-rit	2.B-\	-a	1d	.
.	.	4A\	.	.	.
=151-	=151-	=151-	=151-	=151-	=151-
*	*	*	*	*lig	*
4C/	iu-	0G	.	1e-X	.
4D/	.	.	.	.	.
4E-X\	.	.	.	.	.
4F\	.	.	.	.	.
=152-	=152-	=152-	=152-	=152-	=152-
1G	.	.	.	1d	.
*	*	*	*	*Xlig	*
=153-	=153-	=153-	=153-	=153-	=153-
2C/	-ſtus	2G/	.	1c	.
1C/	e-	1G/	ae-	.	.
=154-	=154-	=154-	=154-	=154-	=154-
*	*	*	*	*lig	*
.	.	.	.	1c	-rit
2AA/	-rit	2A/	.	.	.
*	*	*custos:B-	*	*	*
!	!	!LO:LB:g=original	!	!	!
=155-	=155-	=155-	=155-	=155-	=155-
*lig	*	*lig	*	*	*
1GG	iu-	1B-	-ter-	1d	.
*	*	*	*	*Xlig	*
=156-	=156-	=156-	=156-	=156-	=156-
*	*	*	*	*lig	*
1D	.	1A	.	1d	iu-
*Xlig	*	*Xlig	*	*	*
=157-	=157-	=157-	=157-	=157-	=157-
2GG/	-ſtus	2G/	-na	1B-	.
1G\	e-	1B-\	e-	.	.
*	*	*	*	*Xlig	*
=158-	=158-	=158-	=158-	=158-	=158-
*	*	*	*	*lig	*
.	.	.	.	1d	.
2F\	-rit	2A/	-rit	.	.
=159-	=159-	=159-	=159-	=159-	=159-
4Eny\	iu-	2G/	iuſ-	1c	.
4D\	.	.	.	.	.
4E\	.	2G/	-tus	.	.
4F\	.	.	.	.	.
*	*	*	*	*Xlig	*
=160-	=160-	=160-	=160-	=160-	=160-
*	*	*	*	*lig	*
2.G\	.	2r	.	1B-	.
.	.	1d\	e-	.	.
4F\	.	.	.	.	.
=161-	=161-	=161-	=161-	=161-	=161-
1E-X	.	.	.	1G	.
.	.	2c\	-rit	.	.
*	*	*	*	*Xlig	*
=162-	=162-	=162-	=162-	=162-	=162-
*lig	*	*lig	*	*lig	*
1BB-	.	1d	iu-	1B-	.
=163-	=163-	=163-	=163-	=163-	=163-
1C	.	1c	.	1G	.
*Xlig	*	*Xlig	*	*Xlig	*
=164-	=164-	=164-	=164-	=164-	=164-
*	*	*	*	*lig	*
2BB-/	-ſtus	2F/	.	1B-	.
*	*ij	*	*	*	*
1B-\	e-	2G/	.	.	.
=165-	=165-	=165-	=165-	=165-	=165-
.	.	1F	-ſtus	1c	.
2A\	-rit	.	.	.	.
*	*	*	*	*Xlig	*
=166-	=166-	=166-	=166-	=166-	=166-
*	*	*	*	*lig	*
*	*	*	*ij	*	*
2G\	iu-	4B-\	e-	1d	.
.	.	4B-\	-rit	.	.
2D/	.	1B-\	iu-	.	.
=167-	=167-	=167-	=167-	=167-	=167-
1F	-ſtus	.	.	1c	.
.	.	2A\	.	.	.
*	*Xij	*	*	*	*
*	*	*	*	*Xlig	*
!LO:LB:g=original	!	!	!	!	!
=168-	=168-	=168-	=168-	=168-	=168-
2r	.	0B-	-ſtus	1B-	.
*	*	*	*Xij	*	*
1BB-/	ab	.	.	.	.
*	*	*	*	*custos:d	*
!	!	!	!	!LO:PB:g=original	!
=169-	=169-	=169-	=169-	=169-	=169-
*	*	*	*	*lig	*
.	.	.	.	1d	.
2BB-/	au-	.	.	.	.
=170-	=170-	=170-	=170-	=170-	=170-
2C/	-di-	00r	.	1c	.
2D/	-ti-	.	.	.	.
*	*	*	*	*Xlig	*
=171-	=171-	=171-	=171-	=171-	=171-
2E-X\	-o-	.	.	1B-	.
2G\	-ne	.	.	.	.
=172-	=172-	=172-	=172-	=172-	=172-
*	*	*	*	*lig	*
2F\	ma-	.	.	1c	.
2F\	-la	.	.	.	.
=173-	=173-	=173-	=173-	=173-	=173-
2.E-X\	non	.	.	1G	.
4D\	ti-	.	.	.	.
*	*	*	*	*Xlig	*
=174-	=174-	=174-	=174-	=174-	=174-
1C	-me-	1r	.	1G	-ſtus
=175-	=175-	=175-	=175-	=175-	=175-
2BB-/	-bit	2.F/	ab	1B-	ab
1BB-/	ab	.	.	.	.
.	.	4F/	au-	.	.
=176-	=176-	=176-	=176-	=176-	=176-
.	.	2G/	-di-	1B-	au-
2C/	au-	2G/	-ti-	.	.
*	*	*custos:F	*	*	*
!	!	!LO:LB:g=original	!	!	!
=177-	=177-	=177-	=177-	=177-	=177-
2D/	-di-	2F/	-o-	1B-	-di-
2D/	-ti-	2F/	-ne	.	.
=178-	=178-	=178-	=178-	=178-	=178-
2E-X\	-o-	2.B-\	ma-	1B-	-ti-
2E-\	-ne	.	.	.	.
.	.	4c\	-la	.	.
=179-	=179-	=179-	=179-	=179-	=179-
2.BB-/	ma-	2d\	non	1B-	-o-
.	.	2d\	ti-	.	.
4BB-/	-la	.	.	.	.
=180-	=180-	=180-	=180-	=180-	=180-
*	*	*	*	*lig	*
2E-X\	non	2e-X\	-me-	1B-	-ne
2G\	ti-	1B-\	.	.	.
=181-	=181-	=181-	=181-	=181-	=181-
0F	-me-	.	.	1c	.
.	.	4A/	.	.	.
.	.	4G/	.	.	.
*	*	*	*	*Xlig	*
=182-	=182-	=182-	=182-	=182-	=182-
*	*	*	*	*lig	*
.	.	1A	.	1c	ma-
=183-	=183-	=183-	=183-	=183-	=183-
1BB-	-bit	1B-	-bit	1B-	.
*	*	*	*	*Xlig	*
*custos:F	*	*	*	*	*
!LO:LB:g=original	!	!	!	!	!
=184-	=184-	=184-	=184-	=184-	=184-
*	*	*	*	*lig	*
2.F\	ab	0r	.	1A	.
4G\	au-	.	.	.	.
=185-	=185-	=185-	=185-	=185-	=185-
2A\	-di-	.	.	1F	.
2A\	-ti-	.	.	.	.
*	*	*	*	*Xlig	*
=186-	=186-	=186-	=186-	=186-	=186-
*	*	*	*	*lig	*
2.B-\	-o-	1r	.	1G	.
4A\	-ne	.	.	.	.
=187-	=187-	=187-	=187-	=187-	=187-
*	*	*	*ij	*	*
1G	.	2.B-\	ab	1B-	.
.	.	4B-\	au-	.	.
*	*	*	*	*Xlig	*
=188-	=188-	=188-	=188-	=188-	=188-
1F	.	2c\	-di-	1A	.
.	.	2c\	-ti-	.	.
=189-	=189-	=189-	=189-	=189-	=189-
*	*	*	*	*lig	*
1D	ma-	2d\	-o-	1F	.
.	.	2d\	-ne	.	.
=190-	=190-	=190-	=190-	=190-	=190-
1C	-la	1e-X	ma-	1G	.
*	*	*	*	*Xlig	*
=191-	=191-	=191-	=191-	=191-	=191-
*	*	*	*	*lig	*
1BB-	non	1d	.	1B-	.
=192-	=192-	=192-	=192-	=192-	=192-
2FF/	ti-	1c	.	1A	.
2.AA/	-me-	.	.	.	.
*	*	*	*	*Xlig	*
*	*	*	*	*custos:c	*
!	!	!	!	!LO:LB:g=original	!
=193-	=193-	=193-	=193-	=193-	=193-
*	*	*	*	*lig	*
.	.	2A/	-la	1c	.
4BB-/	.	.	.	.	.
2C/	.	2.G/	non	.	.
=194-	=194-	=194-	=194-	=194-	=194-
2.GG/	.	.	.	1d	.
.	.	4A/	ti-	.	.
.	.	2.B-\	-me-	.	.
4AA/	.	.	.	.	.
*	*	*	*	*Xlig	*
=195-	=195-	=195-	=195-	=195-	=195-
*	*	*	*	*lig	*
2.BB-/	.	.	.	1B-	.
.	.	4c\	.	.	.
*	*	*custos:d	*	*	*
!	!	!LO:LB:g=original	!	!	!
.	.	2.d\	.	.	.
4C/	.	.	.	.	.
=196-	=196-	=196-	=196-	=196-	=196-
1D	.	.	.	1A	.
.	.	4d\	-bit	.	.
.	.	2d\	ma-	.	.
*	*	*	*	*Xlig	*
=197-	=197-	=197-	=197-	=197-	=197-
1GG	-bit	1B-	-la	1G	.
=198-	=198-	=198-	=198-	=198-	=198-
1r	.	2.d\	non	1G	-la
.	.	4d\	ti-	.	.
=199-	=199-	=199-	=199-	=199-	=199-
*	*	*	*	*lig	*
2.BB-/	ab	1d	-me-	1B-	.
4BB-/	au-	.	.	.	.
=200-	=200-	=200-	=200-	=200-	=200-
2C/	-di-	1c	-bit	1G	.
*	*	*	*Xij	*	*
2C/	-ti-	.	.	.	.
*	*	*	*	*Xlig	*
*custos:D	*	*	*	*	*
!LO:PB:g=original	!	!	!	!	!
=201-	=201-	=201-	=201-	=201-	=201-
*lig	*	*	*	*lig	*
1D	-o-	2r	.	1F	.
.	.	1B-\	ab	.	.
=202-	=202-	=202-	=202-	=202-	=202-
!LO:TX:a:t=P:problem=♭ above	!	!	!	!	!
1E-X	.	.	.	1G	.
.	.	2c\	au-	.	.
*Xlig	*	*	*	*Xlig	*
=203-	=203-	=203-	=203-	=203-	=203-
*	*	*	*	*lig	*
1D	-ne	1.d	-di-	1A	.
=204-	=204-	=204-	=204-	=204-	=204-
2.G\	ma-	.	.	1B-	.
.	.	2d\	-ti-	.	.
4F\	.	.	.	.	.
*	*	*	*	*Xlig	*
=205-	=205-	=205-	=205-	=205-	=205-
4E-X\	.	1e-X	-o-	1G	.
4D/	.	.	.	.	.
2C/	.	.	.	.	.
=206-	=206-	=206-	=206-	=206-	=206-
*	*	*	*	*lig	*
1BB-	-la	1d	-ne	1B-	.
=207-	=207-	=207-	=207-	=207-	=207-
*lig	*	*	*	*	*
1FF	non	2.c\	ma-	1A	.
.	.	4c\	-la	.	.
*	*	*	*	*Xlig	*
=208-	=208-	=208-	=208-	=208-	=208-
*	*	*	*	*lig	*
1.GG	.	2.B-\	non	1G	.
.	.	4c\	.	.	.
*Xlig	*	*	*	*	*
=209-	=209-	=209-	=209-	=209-	=209-
.	.	1.d	ti-	1B-	.
2GG/	ti-	.	.	.	.
*	*	*	*	*Xlig	*
=210-	=210-	=210-	=210-	=210-	=210-
1BB-	-me-	.	.	1F	.
.	.	2d\	-me-	.	.
=211-	=211-	=211-	=211-	=211-	=211-
2.C/	.	2.c\	.	1E-X	.
4D/	.	8B-\L	.	.	.
.	.	8A\J	.	.	.
*	*	*custos:G	*	*	*
!	!	!LO:LB:g=original	!	!	!
=212-	=212-	=212-	=212-	=212-	=212-
*	*	*	*	*lig	*
2E-X\	.	2G\	.	1E-X	non
2C/	.	2A\	.	.	.
=213-	=213-	=213-	=213-	=213-	=213-
1BB-	-bit	2B-\	.	1F	.
.	.	2.d\	.	.	.
*	*	*	*	*Xlig	*
=214-	=214-	=214-	=214-	=214-	=214-
1.GG	non	.	.	1G	.
.	.	4c\	.	.	.
.	.	2.B-\	.	.	.
=215-	=215-	=215-	=215-	=215-	=215-
*	*	*	*	*lig	*
.	.	.	.	1B-	.
.	.	4A\	.	.	.
2GG/	ti-	1G/	.	.	.
=216-	=216-	=216-	=216-	=216-	=216-
1D	-me-	.	.	1A	.
!	!	!LO:TX:t=P:problem=# above	!	!	!
.	.	2F#X/	.	.	.
*	*	*	*	*Xlig	*
=217-	=217-	=217-	=217-	=217-	=217-
1GG	-bit	0G	-bit	1G	.
=218-	=218-	=218-	=218-	=218-	=218-
2r	.	.	.	1B-	.
2.BB-/	ab	.	.	.	.
*	*	*	*	*custos:F	*
!	!	!	!	!LO:LB:g=original	!
=219-	=219-	=219-	=219-	=219-	=219-
.	.	2r	.	1F	ti-
4C/	au-	.	.	.	.
*custos:D	*	*	*	*	*
!LO:LB:g=original	!	!	!	!	!
*	*	*	*ij	*	*
4D/	-di-	1B-\	ma-	.	.
4D/	-ti-	.	.	.	.
=220-	=220-	=220-	=220-	=220-	=220-
1E-X	-o-	.	.	1G	-me-
.	.	2c\	.	.	.
=221-	=221-	=221-	=221-	=221-	=221-
*	*	*	*	*lig	*
1BB-	-ne	2d\	-la	1B-	.
.	.	2d\	non	.	.
=222-	=222-	=222-	=222-	=222-	=222-
*	*	*lig	*	*	*
0r	.	1e-X	ti-	1G	.
*	*	*	*	*Xlig	*
=223-	=223-	=223-	=223-	=223-	=223-
*	*	*	*	*lig	*
.	.	1d	.	1B-	.
*	*	*Xlig	*	*	*
=224-	=224-	=224-	=224-	=224-	=224-
2.F\	ab	2.A\	-me-	1c	.
4G\	au-	4B-\	.	.	.
*	*	*	*	*Xlig	*
=225-	=225-	=225-	=225-	=225-	=225-
*	*	*	*	*lig	*
2A\	-di-	2c\	.	1c	.
2A\	-ti-	2Fny/	-bit	.	.
=226-	=226-	=226-	=226-	=226-	=226-
1ryy	.	1r	.	1ryy	.
=227-	=227-	=227-	=227-	=227-	=227-
2.B-\	-o-	2r	.	1d	.
.	.	1B-\	ab	.	.
4A\	.	.	.	.	.
*	*	*	*	*Xlig	*
=228-	=228-	=228-	=228-	=228-	=228-
1G	.	.	.	1B-	.
.	.	2B-\	au-	.	.
=229-	=229-	=229-	=229-	=229-	=229-
*	*	*	*	*lig	*
1F	-ne	2c\	-di-	1A	.
.	.	2c\	-ti-	.	.
*	*	*custos:d	*	*	*
!	!	!LO:PB:g=original	!	!	!
=230-	=230-	=230-	=230-	=230-	=230-
1.BB-	ma-	2.d\	-o-	1B-	.
.	.	4c\	.	.	.
*	*	*	*	*Xlig	*
=231-	=231-	=231-	=231-	=231-	=231-
.	.	2B-\	.	1F	.
2D/	-la	2A/	.	.	.
=232-	=232-	=232-	=232-	=232-	=232-
*	*	*	*	*lig	*
1C	non	1c	.	1G	.
=233-	=233-	=233-	=233-	=233-	=233-
0BB-	ti-	1F	-ne	1B-	.
*	*	*	*	*Xlig	*
=234-	=234-	=234-	=234-	=234-	=234-
*	*	*	*	*lig	*
.	.	1.B-	ma-	1d	.
=235-	=235-	=235-	=235-	=235-	=235-
1FF	-me-	.	.	1c	.
.	.	2A/	.	.	.
*	*	*	*	*Xlig	*
=236-	=236-	=236-	=236-	=236-	=236-
*	*	*	*	*lig	*
1BB-	.	2B-\	.	1B-	.
.	.	1F/	-la	.	.
=237-	=237-	=237-	=237-	=237-	=237-
1FF	.	.	.	1A	.
.	.	2F/	non	.	.
*	*	*	*	*Xlig	*
=238-	=238-	=238-	=238-	=238-	=238-
1GG	.	2D/	ti-	1G	.
.	.	1G/	-me-	.	.
=239-	=239-	=239-	=239-	=239-	=239-
*	*	*	*	*lig	*
1D	.	.	.	1A	.
.	.	2F#X/	.	.	.
!	!	!LO:TX:t=P:problem=# below	!	!	!
=240-	=240-	=240-	=240-	=240-	=240-
1GG	-bit	1G	-bit	1B-	.
*	*	*	*Xij	*	*
*	*	*	*	*Xlig	*
=241-	=241-	=241-	=241-	=241-	=241-
2r	.	2r	.	[>0G	-bit
*custos:C	*	*	*	*	*
!LO:LB:g=original	!	!	!	!	!
1C/	.	1c\	non	.	.
=242-	=242-	=242-	=242-	=242-	=242-
.	.	.	.	.	.
!LO:TX:t=P:problem=# above	!	!	!	!	!
!LO:N:acc=#	!	!	!	!	!
2BBn/	.	2d\	ti-	.	.
=243-	=243-	=243-	=243-	=243-	=243-
1C	.	1c	-me-	0G_;<]l	.
=244-	=244-	=244-	=244-	=244-	=244-
!	!	!LO:TX:t=P:problem=# above	!	!	!
!	!	!LO:N:acc=#	!	!	!
0GG;>	.	0Bn;<	-bit	.	.
=245-	=245-	=245-	=245-	=245-	=245-
.	.	.	.	1G]	.
=-	=-	=-	=-	=-	=-
*-	*-	*-	*-	*-	*-
!!!system-decoration: [(g1)]
!!!RDF**kern: l = terminal long
!!!RDF**kern: > = above
!!!RDF**kern: < = below
!!!ENC: Mateusz Solarz
!!!END: 2021-10-25
!!!EED: Jędrzej Mróz
!!!EEV: 2021-12-22
